client/src/assets/images/Banned_dark.svg

<svg xmlns="http://www.w3.org/2000/svg" width="16" height="16" fill="none"><path fill="#475569" d="M4 0h8v2H4V0ZM2 4V2h2v2H2Zm0 8H0V4h2v8Zm2 2H2v-2h2v2Zm8 0v2H4v-2h8Zm2-2h-2v2h2v-2Zm0-8h2v8h-2V4Zm0 0V2h-2v2h2ZM8 9V7h2v2H8Zm2 0V7h2v2h-2ZM6 9V7h2v2H6ZM4 9V7h2v2H4Z"/></svg>

<svg width="16" height="16" viewBox="0 0 16 16" fill="none" xmlns="http://www.w3.org/2000/svg">
<path d="M4 0H12V2H4V0ZM2 4V2H4V4H2ZM2 12H0V4H2V12ZM4 14H2V12H4V14ZM12 14V16H4V14H12ZM14 12H12V14H14V12ZM14 4H16V12H14V4ZM14 4V2H12V4H14Z" fill="#475569"/>
<path d="M8 9V7H10V9H8Z" fill="#475569"/>
<path d="M10 9V7H12V9H10Z" fill="#475569"/>
<path d="M6 9V7H8V9H6Z" fill="#475569"/>
<path d="M4 9V7H6V9H4Z" fill="#475569"/>
</svg>
